X: 27027
T: Miss Gordon Of Park
R: jig
M: 6/8
K: Fmajor
FGF cAF|FGF~d3|cAF FAc|GEC CDE|
FGF cAF|FGF~a3|gaf efd|1 cdB ABG:|2 c3c2G||
|:cdc geg|cdcc2a|b2ga2f|gaf edc|
[1cdc geg|cdcb2b|agf cde|f3fed:|
[2fgf fcA|d3B2d|cba gfe|f3f3||

